X: 130
T:Touro louro louro
R:No?l
C:Trad.
C:Paraulo de Micoulau Saboly
C:
O:Fance
A:Provence
Z:Transcrit et/ou corrig? par Michel BELLON - 2005-07-26
Z:Pour toute observation mailto:galouvielle@free.fr
M:4/4
L:1/4
Q:1/2=100
K:Bbmaj
B/2c/2d/2e/2 | ff gg | ff dd | ed cd |
+breath+B2 ((B/2c/2)(d/2e/2) | ff gg | ff dd | ed cd |
+breath+B) (f ff | +breath+d)(f ff | +breath+d)(f ff | +breath+d)(f ff |
+breath+d)(f f2 | +breath+d)(f f2 || +breath+d2) (cd | ed c(d/2c/2) | BB/2c/2 dd |
ed c2 | +breath+B2) (d2- | d2 cc | +breath+B2) (d2- | d2 cc | +breath+B2) (BB/2c/2 |
dd (c/2d/2) c2 | Bd cc | Bd (c/2d/2)c | HB2) |]
N:Bien articul?, pas trop vite
N:Intro, 1, Intro, 2
<end>
<start>
